docs/img/svg/calendar.svg

<svg xmlns="http://www.w3.org/2000/svg" preserveAspectRatio="xMidYMid" width="16" height="17" viewBox="0 0 16 17"><defs><style>.cls-1{fill:#818181;fill-rule:evenodd}</style></defs><path d="M14.1 16.995H1.903a1.909 1.909 0 0 1-1.904-1.903V4.049c0-1.047.857-1.903 1.904-1.903h.751v1.142h-.751a.772.772 0 0 0-.762.761V6.35h13.72V4.049a.772.772 0 0 0-.761-.761h-.395V2.146h.395c1.047 0 1.904.856 1.904 1.903v11.043a1.909 1.909 0 0 1-1.904 1.903zm.761-9.527H1.141v7.624c0 .412.349.761.762.761H14.1a.772.772 0 0 0 .761-.761V7.468zm-3.052 3.205a.952.952 0 1 1 0-1.905.952.952 0 0 1 0 1.905zM8.001 14.48a.952.952 0 1 1 0-1.903.952.952 0 0 1 0 1.903zm0-3.807a.952.952 0 1 1 0-1.905.952.952 0 0 1 0 1.905zM4.193 14.48a.952.952 0 1 1 0-1.903.952.952 0 0 1 0 1.903zm0-3.807a.952.952 0 1 1 0-1.905.952.952 0 0 1 0 1.905zm7.426-5.442a.951.951 0 0 1-.952-.951V.948a.952.952 0 1 1 1.904 0V4.28a.952.952 0 0 1-.952.951zm-5.53-3.085h3.824v1.142H6.089V2.146zM4.384 5.231a.951.951 0 0 1-.952-.951V.948a.952.952 0 1 1 1.904 0V4.28a.952.952 0 0 1-.952.951z" class="cls-1"/></svg>

<svg xmlns="http://www.w3.org/2000/svg" xmlns:xlink="http://www.w3.org/1999/xlink" preserveAspectRatio="xMidYMid" width="16" height="17" viewBox="0 0 16 17">
  <defs>
    <style>
      .cls-1 {
        fill: #818181;
        fill-rule: evenodd;
      }
    </style>
  </defs>
  <path d="M14.100,16.995 L1.903,16.995 C0.856,16.995 -0.001,16.139 -0.001,15.092 L-0.001,7.468 L-0.001,7.468 L-0.001,6.326 L-0.001,6.326 L-0.001,4.049 C-0.001,3.002 0.856,2.146 1.903,2.146 L2.654,2.146 L2.654,3.288 L1.903,3.288 C1.490,3.288 1.141,3.637 1.141,4.049 L1.141,6.350 L14.861,6.350 L14.861,4.049 C14.861,3.637 14.512,3.288 14.100,3.288 L13.705,3.288 L13.705,2.146 L14.100,2.146 C15.147,2.146 16.004,3.002 16.004,4.049 L16.004,15.092 C16.004,16.139 15.147,16.995 14.100,16.995 ZM14.861,7.468 L1.141,7.468 L1.141,15.092 C1.141,15.504 1.490,15.853 1.903,15.853 L14.100,15.853 C14.512,15.853 14.861,15.504 14.861,15.092 L14.861,7.468 ZM11.809,10.673 C11.283,10.673 10.857,10.246 10.857,9.721 C10.857,9.195 11.283,8.769 11.809,8.769 C12.335,8.769 12.761,9.195 12.761,9.721 C12.761,10.246 12.335,10.673 11.809,10.673 ZM8.001,14.480 C7.475,14.480 7.049,14.054 7.049,13.528 C7.049,13.002 7.475,12.576 8.001,12.576 C8.527,12.576 8.953,13.002 8.953,13.528 C8.953,14.054 8.527,14.480 8.001,14.480 ZM8.001,10.673 C7.475,10.673 7.049,10.246 7.049,9.721 C7.049,9.195 7.475,8.769 8.001,8.769 C8.527,8.769 8.953,9.195 8.953,9.721 C8.953,10.246 8.527,10.673 8.001,10.673 ZM4.193,14.480 C3.667,14.480 3.241,14.054 3.241,13.528 C3.241,13.002 3.667,12.576 4.193,12.576 C4.719,12.576 5.145,13.002 5.145,13.528 C5.145,14.054 4.719,14.480 4.193,14.480 ZM4.193,10.673 C3.667,10.673 3.241,10.246 3.241,9.721 C3.241,9.195 3.667,8.769 4.193,8.769 C4.719,8.769 5.145,9.195 5.145,9.721 C5.145,10.246 4.719,10.673 4.193,10.673 ZM11.619,5.231 C11.093,5.231 10.667,4.805 10.667,4.280 L10.667,0.948 C10.667,0.422 11.093,-0.004 11.619,-0.004 C12.144,-0.004 12.571,0.422 12.571,0.948 L12.571,4.280 C12.571,4.805 12.144,5.231 11.619,5.231 ZM6.089,2.146 L9.913,2.146 L9.913,3.288 L6.089,3.288 L6.089,2.146 ZM4.384,5.231 C3.858,5.231 3.432,4.805 3.432,4.280 L3.432,0.948 C3.432,0.422 3.858,-0.004 4.384,-0.004 C4.909,-0.004 5.336,0.422 5.336,0.948 L5.336,4.280 C5.336,4.805 4.909,5.231 4.384,5.231 Z" class="cls-1"/>
</svg>
